X:1
T:The Lord to thy request attend
T:Joseph Stephenson
T:p39, Church Harmony Sacred to Devotion, 4th ed. London: [c1763-1771]
T:This edition by Edmund Gooch released into the public domain, June 2013.
T:The Lord to thy request attend
T:Ps. 20th.
C:Joseph Stephenson
Z:p39, Church Harmony
Z:Sacred to Devotion, 4th ed.
Z:London: [c1763-1771]
%%score [ 1 2 3 4 ]
L:1/8
M:3/2
K:C
V:1 treble nm="SOPRANO" snm="S."
V:2 treble nm="ALTO" snm="A."
V:3 treble-8 transpose=-12 nm="TENOR" snm="T."
V:4 bass nm="BASS" snm="B."
V:1
 A4 | c8 (B2 A2) | ^G8 (e3 d) | c8 d4 | e8 e4 | d8 e4 | c4 (B6 A2) | ^G8 B4 | c8 c4 | %9
w: To|com- pass _|thy own _|heart’s de-|sire, Thy|coun- sels|still di- *|rect; Make|kind- ly|
w: The|Lord to _|thy re- *|quest at-|tend, And|hear thee|in dis- *|tress; The|name of|
w: To|aid thee _|from on _|high re-|pair, And|strength from|Si- on _|give; Re-|mem- ber|
 (e2 d2 c2 B2) c4 | B8 A4 | ^G8 =G4 | (A4 B4) c4 | B4 T^G8 | A8 |] %15
w: all _ _ _ e-|vents con-|spire To|bring _ them|to ef-|fect.|
w: Ja- * * * cob’s|God de-|fend, And|grant _ thy|arms suc-|cess.|
w: all _ _ _ thy|off- ’rings|there, Thy|sa- * cri-|fice re-|ceive.|
V:2
 E4 | E8 F4 | E8 E4 | E8 G4 | G8 G4 | G8 (GF E2) | E4 T^D8 | E8 E4 | E8 E4 | G8 G4 | G8 E4 | %11
w: To|com- pass|thy own|heart’s de-|sire, Thy|coun- sels _ _|still di-|rect; Make|kind- ly|all e-|vents con-|
w: The|Lord to|thy re-|quest at-|tend, And|hear thee _ _|in dis-|tress; The|name of|Ja- cob’s|God de-|
w: To|aid thee|from on|high re-|pair, And|strength from _ _|Si- on|give; Re-|mem- ber|all thy|off- ’rings|
 E8 E4 | (C4 D4) E4 | F4 E8 | E8 |] %15
w: spire To|bring _ them|to ef-|fect.|
w: fend, And|grant _ thy|arms suc-|cess.|
w: there, Thy|sa- * cri-|fice re-|ceive.|
V:3
 A4 | e8 (d3 c) | B8 (c3 B) | A8 B4 | c8 c4 | (B6 A2) G4 | A4 (T^F6 E2) | E8 E4 | (A6 B2) c4 | %9
w: To|com- pass _|thy own _|heart’s de-|sire, Thy|coun- * sels|still di- *|rect; Make|kind- * ly|
w: The|Lord to _|thy re- *|quest at-|tend, And|hear _ thee|in dis- *|tress; The|name _ of|
w: To|aid thee _|from on _|high re-|pair, And|strength _ from|Si- on _|give; Re-|mem- * ber|
 B8 e4 | d8 c4 | B8 c4 | (e4 d4) c4 | d4 B8 | A8 |] %15
w: all e-|vents con-|spire To|bring _ them|to ef-|fect.|
w: Ja- cob’s|God de-|fend, And|grant _ thy|arms suc-|cess.|
w: all thy|off- ’rings|there, Thy|sa- * cri-|fice re-|ceive.|
V:4
 A,4 | A,8 D,4 | E,8 E,4 | A,8 G,4 | C,8 C,4 | G,8 E,4 | A,,4 B,,8 | E,8 E,4 | %8
w: To|com- pass|thy own|heart’s de-|sire, Thy|coun- sels|still di-|rect; Make|
w: The|Lord to|thy re-|quest at-|tend, And|hear thee|in dis-|tress; The|
w: To|aid thee|from on|high re-|pair, And|strength from|Si- on|give; Re-|
"^Notes:The alto part is notated in the alto clef in the source. The soprano G§ on the third beat of bar 11 has no accidental in thesource, but is separated from the preceding G# with a double bar line.The opening words of the first verse underlaid here are given in the source, as ‘The Ld. to thy request &c.’, with thetitle 'Ps. 20th' also indicating the text: this and three other stanzas from the text have been underlaid editorially." A,,8 A,4 | %9
w: kind- ly|
w: name of|
w: mem- ber|
 E,8 C,4 | G,8 A,4 | E,8 C,4 | (C4 B,4) A,4 | D,4 E,8 | A,,8 |] %15
w: all e-|vents con-|spire To|bring _ them|to ef-|fect.|
w: Ja- cob’s|God de-|fend, And|grant _ thy|arms suc-|cess.|
w: all thy|off- ’rings|there, Thy|sa- * cri-|fice re-|ceive.|

